X:715
T:Barlinnie Highlander, The 
C:Joe Buchanan's Scottish Tome - Page 235.0
I:235 0
C:R. Wallace
R:Reel
Z:Carl Allison
L:1/8
M:4/4
K:D
B/>e/e/>g/ g/>f/e/>A/ | B/>e/e/>g/ g/>f/e/>d/ | A/>d/d/>f/ f/>e/d/>A/ | dd/>e/ f/>e/d/>A/ |
B/>e/e/>g/ g/>f/e/>A/ | B/>e/e/>g/ g/>f/e/>d/ | A/>d/d/>f/ f/>e/d/>e/ | fe e2 :|
f | gg/>a/ g/>f/e/>f/ | g/>f/g/>a/ g/>f/e | ff/>g/ f/>e/d/>e/ | f/>f/f/>g/ f/>e/d/>f/ |
gg/>a/ g/>f/e/>g/  | g/>f/g/>a/  g/>f/e/>d/| ff/>g/ f/>e/d/>e/  | fe e2 :|
d/>c/ | B/>e/e/>g/ g/>B/B/>e/ | e/>g/g/B/ g/>f/e/>d/ | A/>d/d/>f/ f/>d/A/>d/ | d/>f/f/>g/ f/>e/d/>c/ |
B/>e/e/>g/ g/>B/B/>e/ | e/>g/g/>B/ g/>f/e/>d/ | A/>d/d/>e/ f/>{g}e/{a}d/>{g}e/ | fe e2 :|
e/>f/ | g/>e/a/>f/ g/>f/e/>f/ | g/>e/a/>f/ g/>f/e | f/>d/a/>e/ f/>e/d/>e/ |  ff/>g/ f/>e/d/>f/ |
g/>e/a/>f/ g/>f/e/>f/ | g/>e/a/>f/ g/>f/e | ff/>g/ f/>e/d/>e/ |  fe ee/>f/ |
g/>e/a/>f/ g/>f/e/>f/ | g/>a/a/>f/ g/>f/e | f/>d/a/>e/ f/>e/d/>e/ |  ff/<g/ f/>e/d/>f/ |
g/>e/a/>d/ g/>f/e/>f/ | g/>a/a/>f/ g/>f/e | ff/>g/ f/>e/d/>e/ | fe e2 |]

